humanity-icon-theme/Humanity/apps/24/system-software-install.svg

<?xml version="1.0" encoding="UTF-8" standalone="no"?>
<!-- Created with Inkscape (http://www.inkscape.org/) -->
<svg
   xmlns:dc="http://purl.org/dc/elements/1.1/"
   xmlns:cc="http://creativecommons.org/ns#"
   xmlns:rdf="http://www.w3.org/1999/02/22-rdf-syntax-ns#"
   xmlns:svg="http://www.w3.org/2000/svg"
   xmlns="http://www.w3.org/2000/svg"
   xmlns:xlink="http://www.w3.org/1999/xlink"
   xmlns:sodipodi="http://sodipodi.sourceforge.net/DTD/sodipodi-0.dtd"
   xmlns:inkscape="http://www.inkscape.org/namespaces/inkscape"
   width="24"
   height="24"
   id="svg2"
   sodipodi:version="0.32"
   inkscape:version="0.46"
   version="1.0"
   sodipodi:docname="synaptic.svg"
   inkscape:output_extension="org.inkscape.output.svg.inkscape">
  <defs
     id="defs4">
    <radialGradient
       inkscape:collect="always"
       xlink:href="#linearGradient3681"
       id="radialGradient2601"
       gradientUnits="userSpaceOnUse"
       gradientTransform="matrix(0.5938225,0,0,1.5366531,41.140892,-103.93618)"
       cx="5"
       cy="41.5"
       fx="5"
       fy="41.5"
       r="5" />
    <linearGradient
       id="linearGradient3703">
      <stop
         style="stop-color:black;stop-opacity:0;"
         offset="0"
         id="stop3705" />
      <stop
         id="stop3711"
         offset="0.5"
         style="stop-color:black;stop-opacity:1;" />
      <stop
         style="stop-color:black;stop-opacity:0;"
         offset="1"
         id="stop3707" />
    </linearGradient>
    <linearGradient
       inkscape:collect="always"
       xlink:href="#linearGradient3703"
       id="linearGradient2599"
       gradientUnits="userSpaceOnUse"
       gradientTransform="matrix(1.7570316,0,0,1.3969574,-17.394014,-16.411698)"
       x1="17.554192"
       y1="46.000275"
       x2="17.554192"
       y2="34.999718" />
    <linearGradient
       inkscape:collect="always"
       id="linearGradient3681">
      <stop
         style="stop-color:black;stop-opacity:1;"
         offset="0"
         id="stop3683" />
      <stop
         style="stop-color:black;stop-opacity:0;"
         offset="1"
         id="stop3685" />
    </linearGradient>
    <radialGradient
       inkscape:collect="always"
       xlink:href="#linearGradient3681"
       id="radialGradient2597"
       gradientUnits="userSpaceOnUse"
       gradientTransform="matrix(0.5938225,0,0,1.5366531,-6.6594735,-103.93618)"
       cx="5"
       cy="41.5"
       fx="5"
       fy="41.5"
       r="5" />
    <linearGradient
       id="linearGradient3295">
      <stop
         style="stop-color:#c4a880;stop-opacity:1;"
         offset="0"
         id="stop3297" />
      <stop
         id="stop3299"
         offset="0.23942046"
         style="stop-color:#a37e4f;stop-opacity:1;" />
      <stop
         id="stop3301"
         offset="0.27582464"
         style="stop-color:#c0a37b;stop-opacity:1;" />
      <stop
         style="stop-color:#90734c;stop-opacity:1;"
         offset="1"
         id="stop3303" />
    </linearGradient>
    <linearGradient
       inkscape:collect="always"
       xlink:href="#linearGradient3295"
       id="linearGradient2591"
       gradientUnits="userSpaceOnUse"
       x1="15.464298"
       y1="7.9756851"
       x2="15.464298"
       y2="45.04248"
       gradientTransform="matrix(0.5122637,0,0,0.4997701,-0.2943328,-0.7383152)" />
    <linearGradient
       id="linearGradient3199">
      <stop
         id="stop3201"
         offset="0"
         style="stop-color:#dac197;stop-opacity:1" />
      <stop
         style="stop-color:#c1a581;stop-opacity:1"
         offset="0.23942046"
         id="stop3203" />
      <stop
         style="stop-color:#dbc298;stop-opacity:1"
         offset="0.27582464"
         id="stop3205" />
      <stop
         id="stop3207"
         offset="1"
         style="stop-color:#a68b60;stop-opacity:1" />
    </linearGradient>
    <linearGradient
       inkscape:collect="always"
       xlink:href="#linearGradient3199"
       id="linearGradient2589"
       gradientUnits="userSpaceOnUse"
       gradientTransform="matrix(0.6568375,0,0,0.778273,-3.4038718,-8.380178)"
       x1="24.822832"
       y1="15.377745"
       x2="24.996943"
       y2="37.27668" />
    <linearGradient
       id="linearGradient4559">
      <stop
         style="stop-color:#ffffff;stop-opacity:0;"
         offset="0"
         id="stop4561" />
      <stop
         style="stop-color:#ffffff;stop-opacity:0;"
         offset="1"
         id="stop4563" />
    </linearGradient>
    <linearGradient
       inkscape:collect="always"
       xlink:href="#linearGradient4559"
       id="linearGradient2586"
       gradientUnits="userSpaceOnUse"
       gradientTransform="matrix(0.6568375,0,0,0.5870735,-3.4028652,-3.3892078)"
       x1="23.451576"
       y1="30.554907"
       x2="43.00663"
       y2="45.934479" />
    <linearGradient
       id="linearGradient2605">
      <stop
         id="stop2607"
         offset="0"
         style="stop-color:#ffffff;stop-opacity:1;" />
      <stop
         style="stop-color:#ffffff;stop-opacity:1;"
         offset="0.28755552"
         id="stop2609" />
      <stop
         style="stop-color:#ffffff;stop-opacity:0.69019608;"
         offset="0.32903713"
         id="stop2611" />
      <stop
         id="stop2613"
         offset="1"
         style="stop-color:#ffffff;stop-opacity:0;" />
    </linearGradient>
    <linearGradient
       inkscape:collect="always"
       xlink:href="#linearGradient2605"
       id="linearGradient2583"
       gradientUnits="userSpaceOnUse"
       x1="26"
       y1="22"
       x2="26"
       y2="8"
       gradientTransform="matrix(0.5,0,0,0.4999999,2.93e-7,-0.9999996)" />
    <linearGradient
       id="linearGradient3275">
      <stop
         style="stop-color:#ffffff;stop-opacity:0;"
         offset="0"
         id="stop3277" />
      <stop
         id="stop3283"
         offset="0.245"
         style="stop-color:#ffffff;stop-opacity:1;" />
      <stop
         style="stop-color:#ffffff;stop-opacity:1;"
         offset="0.77350003"
         id="stop3285" />
      <stop
         style="stop-color:#ffffff;stop-opacity:0;"
         offset="1"
         id="stop3279" />
    </linearGradient>
    <linearGradient
       inkscape:collect="always"
       xlink:href="#linearGradient3275"
       id="linearGradient2580"
       gradientUnits="userSpaceOnUse"
       spreadMethod="reflect"
       x1="44.994774"
       y1="17.5"
       x2="3.0052247"
       y2="17.5"
       gradientTransform="matrix(0.5122637,0,0,0.4997701,-0.2933262,-0.2459769)" />
    <linearGradient
       inkscape:collect="always"
       id="linearGradient4222">
      <stop
         style="stop-color:#ffffff;stop-opacity:1;"
         offset="0"
         id="stop4224" />
      <stop
         style="stop-color:#ffffff;stop-opacity:0;"
         offset="1"
         id="stop4226" />
    </linearGradient>
    <linearGradient
       inkscape:collect="always"
       xlink:href="#linearGradient4222"
       id="linearGradient3134"
       gradientUnits="userSpaceOnUse"
       gradientTransform="matrix(0,0.3704967,-0.3617496,0,-4.130239,3.3844037)"
       x1="13.471772"
       y1="25.410501"
       x2="57.726395"
       y2="25.410501" />
    <linearGradient
       id="linearGradient2264">
      <stop
         style="stop-color:#d7e866;stop-opacity:1;"
         offset="0"
         id="stop2266" />
      <stop
         style="stop-color:#8cab2a;stop-opacity:1;"
         offset="1"
         id="stop2268" />
    </linearGradient>
    <linearGradient
       inkscape:collect="always"
       xlink:href="#linearGradient2264"
       id="linearGradient3132"
       gradientUnits="userSpaceOnUse"
       gradientTransform="matrix(0,-0.319447,-0.313352,0,-6.152273,19.802328)"
       x1="28.314739"
       y1="20.709501"
       x2="0.81572169"
       y2="20.709501" />
  </defs>
  <sodipodi:namedview
     id="base"
     pagecolor="#ffffff"
     bordercolor="#666666"
     borderopacity="1.0"
     gridtolerance="10000"
     guidetolerance="10"
     objecttolerance="10"
     inkscape:pageopacity="0.0"
     inkscape:pageshadow="2"
     inkscape:zoom="10.375"
     inkscape:cx="12"
     inkscape:cy="12"
     inkscape:document-units="px"
     inkscape:current-layer="layer1"
     showgrid="false"
     inkscape:window-width="640"
     inkscape:window-height="720"
     inkscape:window-x="798"
     inkscape:window-y="24" />
  <metadata
     id="metadata7">
    <rdf:RDF>
      <cc:Work
         rdf:about="">
        <dc:format>image/svg+xml</dc:format>
        <dc:type
           rdf:resource="http://purl.org/dc/dcmitype/StillImage" />
      </cc:Work>
    </rdf:RDF>
  </metadata>
  <g
     inkscape:label="Layer 1"
     inkscape:groupmode="layer"
     id="layer1">
    <g
       id="g3305"
       style="opacity:0.40000000000000002;display:inline"
       transform="matrix(0.507121,0,0,0.4555355,-0.3702833,1.2033829)">
      <rect
         style="opacity:1;fill:url(#radialGradient2597);fill-opacity:1;stroke:none;stroke-width:1;stroke-linecap:round;stroke-linejoin:miter;stroke-miterlimit:4;stroke-dasharray:none;stroke-dashoffset:1.20000057;stroke-opacity:1"
         id="rect2484"
         width="2.9601951"
         height="15.366531"
         x="-3.6903627"
         y="-47.848343"
         transform="scale(-1,-1)" />
      <rect
         style="opacity:1;fill:url(#linearGradient2599);fill-opacity:1;stroke:none;stroke-width:1;stroke-linecap:round;stroke-linejoin:miter;stroke-miterlimit:4;stroke-dasharray:none;stroke-dashoffset:1.20000057;stroke-opacity:1"
         id="rect2486"
         width="40.41172"
         height="15.366531"
         x="3.6903627"
         y="32.481812" />
      <rect
         style="opacity:1;fill:url(#radialGradient2601);fill-opacity:1;stroke:none;stroke-width:1;stroke-linecap:round;stroke-linejoin:miter;stroke-miterlimit:4;stroke-dasharray:none;stroke-dashoffset:1.20000057;stroke-opacity:1;display:inline"
         id="rect3444"
         width="2.9601951"
         height="15.366531"
         x="44.110001"
         y="-47.848343"
         transform="scale(1,-1)" />
    </g>
    <path
       inkscape:r_cy="true"
       inkscape:r_cx="true"
       sodipodi:nodetypes="ccccccccccc"
       id="path2488"
       d="M 4.3215346,3.5097308 L 19.432146,3.5097308 C 20.314258,3.5097308 20.711229,3.3665214 20.96461,4.0095009 L 22.502289,8.0076617 L 22.502289,20.838717 C 22.502289,21.615011 22.555017,21.496402 21.672903,21.496402 L 2.3270891,21.496402 C 1.4449748,21.496402 1.4977016,21.615011 1.4977016,20.838717 L 1.4977016,8.0076617 L 3.0353813,4.0095009 C 3.2816939,3.3795096 3.4394204,3.5097308 4.3215346,3.5097308 z"
       style="fill:url(#linearGradient2589);fill-opacity:1;fill-rule:nonzero;stroke:url(#linearGradient2591);stroke-width:0.99420083000000004;stroke-linecap:round;stroke-linejoin:miter;marker:none;marker-start:none;marker-mid:none;marker-end:none;stroke-miterlimit:4;stroke-dasharray:none;stroke-dashoffset:0;stroke-opacity:1;visibility:visible;display:block;overflow:visible" />
    <path
       style="opacity:0.50549454000000005;fill:none;fill-opacity:1;fill-rule:nonzero;stroke:url(#linearGradient2586);stroke-width:0.74211526000000005;stroke-linecap:butt;stroke-linejoin:miter;marker:none;marker-start:none;marker-mid:none;marker-end:none;stroke-miterlimit:4;stroke-dasharray:none;stroke-dashoffset:0;stroke-opacity:1;visibility:visible;display:block;overflow:visible"
       d="M 4.8027726,4.0154429 L 18.968335,4.0154429 C 19.795279,4.0154429 20.307074,4.2935829 20.653437,5.0579773 L 21.846469,8.266362 L 21.846469,19.833321 C 21.846469,20.563322 21.427048,20.930858 20.600103,20.930858 L 3.3198071,20.930858 C 2.4928631,20.930858 2.1555463,20.52663 2.1555463,19.796628 L 2.1555463,8.266362 L 3.3100918,4.9891895 C 3.541001,4.3967659 3.9758268,4.0154429 4.8027726,4.0154429 z"
       id="path2490"
       sodipodi:nodetypes="ccccccccccc"
       inkscape:r_cx="true"
       inkscape:r_cy="true" />
    <path
       style="opacity:0.40000000000000002;fill:url(#linearGradient2583);fill-opacity:1;fill-rule:nonzero;stroke:none;stroke-width:1;stroke-linecap:square;stroke-linejoin:round;marker:none;marker-start:none;marker-mid:none;marker-end:none;stroke-miterlimit:4;stroke-dasharray:none;stroke-dashoffset:0;stroke-opacity:1;visibility:visible;display:inline;overflow:visible;enable-background:accumulate"
       d="M 11,3 C 11.666667,3 12.333334,3 13,3 C 13,5.3333335 13,7.6666662 13,10 C 12.803135,10 12.60627,10 12.409407,10 C 12.207843,10 12.006281,10 11.804718,10 C 11.642454,10 11.48019,10 11.317927,10 C 11.21195,10 11.105976,10 11,10 C 11,7.6666662 11,5.3333335 11,3 z"
       id="rect3326"
       sodipodi:nodetypes="cccssscc" />
    <path
       style="opacity:0.40000000000000002;fill:none;fill-rule:evenodd;stroke:url(#linearGradient2580);stroke-width:0.99999994000000003px;stroke-linecap:square;stroke-linejoin:miter;stroke-opacity:1;display:inline"
       d="M 1.5022732,8.5 L 22.499732,8.5"
       id="path3273" />
    <g
       id="g3128"
       transform="translate(30.638554,4.2835418)">
      <path
         id="path3288"
         d="M -7.462508,12.216458 L -13.654069,19.217311 L -19.8146,12.216458 L -17.138554,12.216458 L -17.138554,6.2156046 L -10.138554,6.2156046 L -10.138554,12.216458 L -7.462508,12.216458 z"
         style="fill:url(#linearGradient3132);fill-opacity:1;fill-rule:nonzero;stroke:#699536;stroke-width:0.99829447;stroke-linecap:round;stroke-linejoin:round;marker:none;marker-start:none;marker-mid:none;marker-end:none;stroke-miterlimit:4;stroke-dasharray:none;stroke-dashoffset:0;stroke-opacity:1;visibility:visible;display:inline;overflow:visible"
         sodipodi:nodetypes="cccccccc" />
      <path
         id="path3290"
         d="M -9.712151,13.216458 L -13.638554,17.761573 L -17.675492,13.216458 L -16.138554,13.216458 L -16.138554,7.2164576 L -11.138554,7.2164576 L -11.138554,13.216458 L -9.712151,13.216458 z"
         style="opacity:0.35400002;fill:none;fill-opacity:1;fill-rule:nonzero;stroke:url(#linearGradient3134);stroke-width:0.99829447;stroke-linecap:butt;stroke-linejoin:miter;marker:none;marker-start:none;marker-mid:none;marker-end:none;stroke-miterlimit:4;stroke-dasharray:none;stroke-dashoffset:0;stroke-opacity:1;visibility:visible;display:inline;overflow:visible"
         sodipodi:nodetypes="cccccccc" />
    </g>
  </g>
</svg>

<?xml version="1.0" encoding="UTF-8" standalone="no"?>
<!-- Created with Inkscape (http://www.inkscape.org/) -->
<svg id="svg2" xmlns:rdf="http://www.w3.org/1999/02/22-rdf-syntax-ns#" xmlns="http://www.w3.org/2000/svg" height="24" width="24" version="1.0" xmlns:cc="http://creativecommons.org/ns#" xmlns:xlink="http://www.w3.org/1999/xlink" xmlns:dc="http://purl.org/dc/elements/1.1/">
 <defs id="defs4">
  <radialGradient id="radialGradient2601" xlink:href="#linearGradient3681" gradientUnits="userSpaceOnUse" cy="41.5" cx="5" gradientTransform="matrix(.59382 0 0 1.5367 41.141 -103.94)" r="5"/>
  <linearGradient id="linearGradient2599" y2="35" gradientUnits="userSpaceOnUse" x2="17.554" gradientTransform="matrix(1.757 0 0 1.397 -17.394 -16.412)" y1="46" x1="17.554">
   <stop id="stop3705" style="stop-opacity:0" offset="0"/>
   <stop id="stop3711" offset=".5"/>
   <stop id="stop3707" style="stop-opacity:0" offset="1"/>
  </linearGradient>
  <linearGradient id="linearGradient3681">
   <stop id="stop3683" offset="0"/>
   <stop id="stop3685" style="stop-opacity:0" offset="1"/>
  </linearGradient>
  <radialGradient id="radialGradient2597" xlink:href="#linearGradient3681" gradientUnits="userSpaceOnUse" cy="41.5" cx="5" gradientTransform="matrix(.59382 0 0 1.5367 -6.6595 -103.94)" r="5"/>
  <linearGradient id="linearGradient2591" y2="45.042" gradientUnits="userSpaceOnUse" x2="15.464" gradientTransform="matrix(.51226 0 0 .49977 -.29433 -.73832)" y1="7.9757" x1="15.464">
   <stop id="stop3297" style="stop-color:#c4a880" offset="0"/>
   <stop id="stop3299" style="stop-color:#a37e4f" offset=".23942"/>
   <stop id="stop3301" style="stop-color:#c0a37b" offset=".27582"/>
   <stop id="stop3303" style="stop-color:#90734c" offset="1"/>
  </linearGradient>
  <linearGradient id="linearGradient2589" y2="37.277" gradientUnits="userSpaceOnUse" x2="24.997" gradientTransform="matrix(.65684 0 0 .77827 -3.4039 -8.3802)" y1="15.378" x1="24.823">
   <stop id="stop3201" style="stop-color:#dac197" offset="0"/>
   <stop id="stop3203" style="stop-color:#c1a581" offset=".23942"/>
   <stop id="stop3205" style="stop-color:#dbc298" offset=".27582"/>
   <stop id="stop3207" style="stop-color:#a68b60" offset="1"/>
  </linearGradient>
  <linearGradient id="linearGradient2586" y2="45.934" gradientUnits="userSpaceOnUse" x2="43.007" gradientTransform="matrix(.65684 0 0 .58707 -3.4029 -3.3892)" y1="30.555" x1="23.452">
   <stop id="stop4561" style="stop-color:#fff;stop-opacity:0" offset="0"/>
   <stop id="stop4563" style="stop-color:#fff;stop-opacity:0" offset="1"/>
  </linearGradient>
  <linearGradient id="linearGradient2583" y2="8" gradientUnits="userSpaceOnUse" x2="26" gradientTransform="matrix(.5 0 0 0.5 2.93e-7 -1)" y1="22" x1="26">
   <stop id="stop2607" style="stop-color:#fff" offset="0"/>
   <stop id="stop2609" style="stop-color:#fff" offset=".28756"/>
   <stop id="stop2611" style="stop-color:#fff;stop-opacity:.69020" offset=".32904"/>
   <stop id="stop2613" style="stop-color:#fff;stop-opacity:0" offset="1"/>
  </linearGradient>
  <linearGradient id="linearGradient2580" y2="17.5" spreadMethod="reflect" gradientUnits="userSpaceOnUse" x2="3.0052" gradientTransform="matrix(.51226 0 0 .49977 -.29333 -.24598)" y1="17.5" x1="44.995">
   <stop id="stop3277" style="stop-color:#fff;stop-opacity:0" offset="0"/>
   <stop id="stop3283" style="stop-color:#fff" offset=".245"/>
   <stop id="stop3285" style="stop-color:#fff" offset=".77350"/>
   <stop id="stop3279" style="stop-color:#fff;stop-opacity:0" offset="1"/>
  </linearGradient>
  <linearGradient id="linearGradient3134" y2="25.411" gradientUnits="userSpaceOnUse" x2="57.726" gradientTransform="matrix(0 .37050 -.36175 0 -4.1302 3.3844)" y1="25.411" x1="13.472">
   <stop id="stop4224" style="stop-color:#fff" offset="0"/>
   <stop id="stop4226" style="stop-color:#fff;stop-opacity:0" offset="1"/>
  </linearGradient>
  <linearGradient id="linearGradient3132" y2="20.71" gradientUnits="userSpaceOnUse" x2=".81572" gradientTransform="matrix(0 -.31945 -.31335 0 -6.1523 19.802)" y1="20.71" x1="28.315">
   <stop id="stop2266" style="stop-color:#d7e866" offset="0"/>
   <stop id="stop2268" style="stop-color:#8cab2a" offset="1"/>
  </linearGradient>
 </defs>
 <metadata id="metadata7">
  <rdf:RDF>
   <cc:Work rdf:about="">
    <dc:format>image/svg+xml</dc:format>
    <dc:type rdf:resource="http://purl.org/dc/dcmitype/StillImage"/>
   </cc:Work>
  </rdf:RDF>
 </metadata>
 <g id="layer1">
  <g id="g3305" style="opacity:.4" transform="matrix(.50712 0 0 .45554 -.37028 1.2034)">
   <rect id="rect2484" style="opacity:1;fill:url(#radialGradient2597)" transform="scale(-1)" height="15.367" width="2.9602" y="-47.848" x="-3.6904"/>
   <rect id="rect2486" style="opacity:1;fill:url(#linearGradient2599)" height="15.367" width="40.412" y="32.482" x="3.6904"/>
   <rect id="rect3444" style="opacity:1;fill:url(#radialGradient2601)" transform="scale(1,-1)" height="15.367" width="2.9602" y="-47.848" x="44.11"/>
  </g>
  <path id="path2488" style="stroke:url(#linearGradient2591);stroke-linecap:round;stroke-width:.99420;display:block;fill:url(#linearGradient2589)" d="m4.3215 3.5097h15.11c0.882 0 1.279-0.1432 1.533 0.4998l1.537 3.9982v12.831c0 0.776 0.053 0.657-0.829 0.657h-19.346c-0.882 0-0.8293 0.119-0.8293-0.657v-12.831l1.5377-3.9985c0.2463-0.63 0.404-0.4998 1.2861-0.4998z"/>
  <path id="path2490" style="opacity:.50549;stroke:url(#linearGradient2586);stroke-width:.74212;display:block;fill:none" d="m4.8028 4.0154h14.165c0.827 0 1.339 0.2782 1.685 1.0426l1.193 3.2084v11.567c0 0.73-0.419 1.098-1.246 1.098h-17.28c-0.8271 0-1.1645-0.404-1.1645-1.134v-11.531l1.1546-3.2768c0.2309-0.5924 0.6657-0.9738 1.4927-0.9738z"/>
  <path id="rect3326" style="opacity:.4;fill:url(#linearGradient2583)" d="m11 3h2v7h-0.591-0.604-0.487-0.318v-7z"/>
  <path id="path3273" style="opacity:.4;stroke:url(#linearGradient2580);stroke-linecap:square;stroke-width:1px;fill:none" d="m1.5023 8.5h20.998"/>
  <g id="g3128" transform="translate(30.639 4.2835)">
   <path id="path3288" style="stroke-linejoin:round;stroke:#699536;stroke-linecap:round;stroke-width:.99829;fill:url(#linearGradient3132)" d="m-7.4625 12.216l-6.1915 7.001-6.161-7.001h2.676v-6.0004h7v6.0004h2.6765z"/>
   <path id="path3290" style="opacity:0.354;stroke:url(#linearGradient3134);stroke-width:.99829;fill:none" d="m-9.7122 13.216l-3.9268 4.546-4.036-4.546h1.536v-5.9995h5v5.9995h1.4268z"/>
  </g>
 </g>
</svg>
